assets/icons/server.svg

<svg xmlns="http://www.w3.org/2000/svg" data-name="Layer 1" viewBox="0 0 24 24">
    <path fill="#3F51B5"
        d="M15 17a1 1 0 101 1 1 1 0 00-1-1zm-6 0H6a1 1 0 000 2h3a1 1 0 000-2zm9 0a1 1 0 101 1 1 1 0 00-1-1zm-3-6a1 1 0 101 1 1 1 0 00-1-1zm-6 0H6a1 1 0 000 2h3a1 1 0 000-2zm9-6a1 1 0 101 1 1 1 0 00-1-1zm0 6a1 1 0 101 1 1 1 0 00-1-1zm4-6a3 3 0 00-3-3H5a3 3 0 00-3 3v2a3 3 0 00.78 2A3 3 0 002 11v2a3 3 0 00.78 2A3 3 0 002 17v2a3 3 0 003 3h14a3 3 0 003-3v-2a3 3 0 00-.78-2 3 3 0 00.78-2v-2a3 3 0 00-.78-2A3 3 0 0022 7zm-2 14a1 1 0 01-1 1H5a1 1 0 01-1-1v-2a1 1 0 011-1h14a1 1 0 011 1zm0-6a1 1 0 01-1 1H5a1 1 0 01-1-1v-2a1 1 0 011-1h14a1 1 0 011 1zm0-6a1 1 0 01-1 1H5a1 1 0 01-1-1V5a1 1 0 011-1h14a1 1 0 011 1zm-5-2a1 1 0 101 1 1 1 0 00-1-1zM9 5H6a1 1 0 000 2h3a1 1 0 000-2z" />
</svg>

<svg xmlns="http://www.w3.org/2000/svg" data-name="Layer 1" viewBox="0 0 24 24"><path fill="#3F51B5" d="M15,17a1,1,0,1,0,1,1A1,1,0,0,0,15,17ZM9,17H6a1,1,0,0,0,0,2H9a1,1,0,0,0,0-2Zm9,0a1,1,0,1,0,1,1A1,1,0,0,0,18,17Zm-3-6a1,1,0,1,0,1,1A1,1,0,0,0,15,11ZM9,11H6a1,1,0,0,0,0,2H9a1,1,0,0,0,0-2Zm9-6a1,1,0,1,0,1,1A1,1,0,0,0,18,5Zm0,6a1,1,0,1,0,1,1A1,1,0,0,0,18,11Zm4-6a3,3,0,0,0-3-3H5A3,3,0,0,0,2,5V7a3,3,0,0,0,.78,2A3,3,0,0,0,2,11v2a3,3,0,0,0,.78,2A3,3,0,0,0,2,17v2a3,3,0,0,0,3,3H19a3,3,0,0,0,3-3V17a3,3,0,0,0-.78-2A3,3,0,0,0,22,13V11a3,3,0,0,0-.78-2A3,3,0,0,0,22,7ZM20,19a1,1,0,0,1-1,1H5a1,1,0,0,1-1-1V17a1,1,0,0,1,1-1H19a1,1,0,0,1,1,1Zm0-6a1,1,0,0,1-1,1H5a1,1,0,0,1-1-1V11a1,1,0,0,1,1-1H19a1,1,0,0,1,1,1Zm0-6a1,1,0,0,1-1,1H5A1,1,0,0,1,4,7V5A1,1,0,0,1,5,4H19a1,1,0,0,1,1,1ZM15,5a1,1,0,1,0,1,1A1,1,0,0,0,15,5ZM9,5H6A1,1,0,0,0,6,7H9A1,1,0,0,0,9,5Z"/></svg>
